X: 1
T: Peacock's Fancy
M: 12/8
L: 1/8
R: slide
K: Emin
|:D|G3 B2G c2A B2G|c2A Bcd e3 e2f|
gfe f2d B2d g2e|dBG A2G E3 E2:|
|:f|g2f efg a2f d2f|g2e faf e3 e2f|
g2e f2d B2d g2e|dBG A2G E3 E2:|
